actions/24/document-properties.svg

<?xml version="1.0" encoding="UTF-8" standalone="no"?>
<!-- Created with Inkscape (http://www.inkscape.org/) -->

<svg
   xmlns:svg="http://www.w3.org/2000/svg"
   xmlns="http://www.w3.org/2000/svg"
   xmlns:xlink="http://www.w3.org/1999/xlink"
   version="1.0"
   width="24"
   height="24"
   id="svg2">
  <defs
     id="defs4">
    <linearGradient
       id="linearGradient5128">
      <stop
         id="stop5130"
         style="stop-color:#eee;stop-opacity:1"
         offset="0" />
      <stop
         id="stop5132"
         style="stop-color:#a2a2a2;stop-opacity:1"
         offset="1" />
    </linearGradient>
    <linearGradient
       x1="86.132919"
       y1="105.105"
       x2="84.63858"
       y2="20.895"
       id="linearGradient3241"
       xlink:href="#linearGradient5128"
       gradientUnits="userSpaceOnUse"
       gradientTransform="matrix(0.1562313,0,0,0.1562313,2.0012016,2.1574324)" />
    <linearGradient
       id="linearGradient3397">
      <stop
         id="stop3399"
         style="stop-color:#aaa;stop-opacity:1"
         offset="0" />
      <stop
         id="stop3401"
         style="stop-color:#8c8c8c;stop-opacity:1"
         offset="1" />
    </linearGradient>
    <linearGradient
       x1="40"
       y1="1"
       x2="40"
       y2="23.019524"
       id="linearGradient3228"
       xlink:href="#linearGradient3397"
       gradientUnits="userSpaceOnUse"
       gradientTransform="translate(-24.5,0)" />
    <linearGradient
       x1="63.9995"
       y1="3.1001"
       x2="63.9995"
       y2="122.8994"
       id="linearGradient3309"
       gradientUnits="userSpaceOnUse">
      <stop
         id="stop3311"
         style="stop-color:#f6f6f6;stop-opacity:1"
         offset="0" />
      <stop
         id="stop3313"
         style="stop-color:#d2d2d2;stop-opacity:1"
         offset="1" />
    </linearGradient>
    <linearGradient
       x1="34"
       y1="1"
       x2="34"
       y2="23.00024"
       id="linearGradient3218"
       xlink:href="#linearGradient3309"
       gradientUnits="userSpaceOnUse"
       gradientTransform="translate(-24.5,0)" />
    <linearGradient
       id="linearGradient10691">
      <stop
         id="stop10693"
         style="stop-color:black;stop-opacity:1"
         offset="0" />
      <stop
         id="stop10695"
         style="stop-color:black;stop-opacity:0"
         offset="1" />
    </linearGradient>
    <radialGradient
       cx="6.702713"
       cy="73.615715"
       r="7.228416"
       fx="6.702713"
       fy="73.615715"
       id="radialGradient2411"
       xlink:href="#linearGradient10691"
       gradientUnits="userSpaceOnUse"
       gradientTransform="matrix(1.660115,0,0,0.3458573,0.8727276,-3.9605294)" />
  </defs>
  <g
     id="layer1">
    <g
       id="g2486">
      <path
         d="m 24.000001,21.5 c 0,1.380712 -5.372583,2.5 -12,2.5 C 5.3725835,24 3e-7,22.880712 3e-7,21.5 3e-7,20.119288 5.3725835,19 12.000001,19 c 6.627417,0 12,1.119288 12,2.5 z"
         id="path10689"
         style="opacity:0.2;fill:url(#radialGradient2411);fill-opacity:1;fill-rule:nonzero;stroke:none;stroke-width:0.80000001;marker:none;visibility:visible;display:inline;overflow:visible" />
      <path
         d="M 10.1875,1.5 C 9.799134,1.5 9.5,1.7991339 9.5,2.1875 l 0,1.6875 C 8.988333,4.0322247 8.496816,4.2537684 8.03125,4.5 L 6.84375,3.3125 c -0.274616,-0.2746162 -0.725384,-0.2746162 -1,0 L 3.3125,5.84375 c -0.274616,0.2746162 -0.274616,0.7253836 0,1 L 4.5,8.03125 C 4.253769,8.4968155 4.032225,8.9883329 3.875,9.5 l -1.6875,0 C 1.799134,9.5 1.5,9.7991344 1.5,10.1875 l 0,3.625 C 1.5,14.200866 1.799134,14.5 2.1875,14.5 l 1.6875,0 c 0.157225,0.511667 0.378769,1.003185 0.625,1.46875 l -1.1875,1.1875 c -0.274616,0.274616 -0.274616,0.725384 0,1 l 2.53125,2.53125 c 0.274616,0.274616 0.725384,0.274616 1,0 L 8.03125,19.5 C 8.496816,19.746232 8.988333,19.967775 9.5,20.125 l 0,1.6875 c 0,0.388366 0.299135,0.6875 0.6875,0.6875 l 3.625,0 c 0.388366,0 0.6875,-0.299134 0.6875,-0.6875 l 0,-1.6875 c 0.511667,-0.157225 1.003185,-0.378768 1.46875,-0.625 l 1.1875,1.1875 c 0.274616,0.274616 0.725384,0.274616 1,0 l 2.53125,-2.53125 c 0.274616,-0.274616 0.274616,-0.725384 0,-1 L 19.5,15.96875 C 19.746232,15.503185 19.967775,15.011667 20.125,14.5 l 1.6875,0 c 0.388366,0 0.6875,-0.299134 0.6875,-0.6875 l 0,-3.625 C 22.5,9.7991341 22.200866,9.5 21.8125,9.5 l -1.6875,0 C 19.967775,8.9883329 19.746232,8.4968155 19.5,8.03125 l 1.1875,-1.1875 c 0.274616,-0.2746162 0.274616,-0.7253837 0,-1 L 18.15625,3.3125 c -0.274616,-0.2746162 -0.725384,-0.2746162 -1,0 L 15.96875,4.5 C 15.503185,4.2537684 15.011667,4.0322247 14.5,3.875 l 0,-1.6875 C 14.5,1.7991341 14.200866,1.5 13.8125,1.5 l -3.625,0 z M 12,9 c 1.656,0 3,1.344 3,3 0,1.656 -1.344,3 -3,3 -1.656,0 -3,-1.344 -3,-3 0,-1.656 1.344,-3 3,-3 z"
         id="rect2426"
         style="fill:url(#linearGradient3218);fill-opacity:1;fill-rule:nonzero;stroke:url(#linearGradient3228);stroke-width:1;stroke-linecap:butt;stroke-linejoin:round;stroke-miterlimit:4;stroke-opacity:1;stroke-dasharray:none;stroke-dashoffset:0;marker:none;visibility:visible;display:block;overflow:visible;enable-background:accumulate" />
      <path
         d="m 12,6 c -3.3084557,-2e-7 -5.9999999,2.6915446 -5.9999999,6 0,3.308455 2.6915442,6 5.9999999,6 3.308455,-1e-6 6,-2.691545 6,-6 0,-3.3084554 -2.691545,-6 -6,-6 z m 0,2.7692308 c 1.783385,0 3.230769,1.4473842 3.230769,3.2307692 0,1.783385 -1.447384,3.230769 -3.230769,3.230769 -1.783385,0 -3.2307692,-1.447384 -3.2307692,-3.230769 0,-1.783385 1.4473842,-3.2307692 3.2307692,-3.2307692 z"
         id="path3315"
         style="opacity:0.05;fill:black;fill-opacity:1;stroke:none" />
      <path
         d="m 11.999999,5.4999995 c -3.5840997,0 -6.4999994,2.9158997 -6.4999994,6.4999995 C 5.4999996,15.5841 8.4158993,18.5 11.999999,18.5 15.584101,18.5 18.5,15.5841 18.5,11.999999 18.5,8.4158992 15.584101,5.4999995 11.999999,5.4999995 z"
         id="path28"
         style="fill:none;stroke:url(#linearGradient3241);stroke-width:1;stroke-miterlimit:4;stroke-dasharray:none" />
    </g>
  </g>
</svg>

<?xml version="1.0" encoding="UTF-8" standalone="no"?>
<!-- Created with Inkscape (http://www.inkscape.org/) -->
<svg
   xmlns:svg="http://www.w3.org/2000/svg"
   xmlns="http://www.w3.org/2000/svg"
   xmlns:xlink="http://www.w3.org/1999/xlink"
   version="1.0"
   width="24"
   height="24"
   id="svg2">
  <defs
     id="defs4">
    <linearGradient
       id="linearGradient5128">
      <stop
         id="stop5130"
         style="stop-color:#eeeeee;stop-opacity:1"
         offset="0" />
      <stop
         id="stop5132"
         style="stop-color:#a2a2a2;stop-opacity:1"
         offset="1" />
    </linearGradient>
    <linearGradient
       x1="86.132919"
       y1="105.105"
       x2="84.63858"
       y2="20.895"
       id="linearGradient3241"
       xlink:href="#linearGradient5128"
       gradientUnits="userSpaceOnUse"
       gradientTransform="matrix(0.1562313,0,0,0.1562313,2.0012016,2.1574324)" />
    <linearGradient
       id="linearGradient3397">
      <stop
         id="stop3399"
         style="stop-color:#aaaaaa;stop-opacity:1"
         offset="0" />
      <stop
         id="stop3401"
         style="stop-color:#8c8c8c;stop-opacity:1"
         offset="1" />
    </linearGradient>
    <linearGradient
       x1="40"
       y1="1"
       x2="40"
       y2="23.019524"
       id="linearGradient3228"
       xlink:href="#linearGradient3397"
       gradientUnits="userSpaceOnUse"
       gradientTransform="translate(-24.5,0)" />
    <linearGradient
       x1="63.9995"
       y1="3.1001"
       x2="63.9995"
       y2="122.8994"
       id="linearGradient3309"
       gradientUnits="userSpaceOnUse">
      <stop
         id="stop3311"
         style="stop-color:#f6f6f6;stop-opacity:1"
         offset="0" />
      <stop
         id="stop3313"
         style="stop-color:#d2d2d2;stop-opacity:1"
         offset="1" />
    </linearGradient>
    <linearGradient
       x1="34"
       y1="1"
       x2="34"
       y2="23.00024"
       id="linearGradient3218"
       xlink:href="#linearGradient3309"
       gradientUnits="userSpaceOnUse"
       gradientTransform="translate(-24.5,0)" />
    <linearGradient
       id="linearGradient10691">
      <stop
         id="stop10693"
         style="stop-color:#000000;stop-opacity:1"
         offset="0" />
      <stop
         id="stop10695"
         style="stop-color:#000000;stop-opacity:0"
         offset="1" />
    </linearGradient>
    <radialGradient
       cx="6.702713"
       cy="73.615715"
       r="7.228416"
       fx="6.702713"
       fy="73.615715"
       id="radialGradient2411"
       xlink:href="#linearGradient10691"
       gradientUnits="userSpaceOnUse"
       gradientTransform="matrix(1.660115,0,0,0.3458573,0.8727276,-3.9605294)" />
  </defs>
  <g
     id="layer1">
    <g
       id="g2486">
      <path
         d="M 24.000001,21.5 C 24.000001,22.880712 18.627418,24 12.000001,24 C 5.3725835,24 3e-07,22.880712 3e-07,21.5 C 3e-07,20.119288 5.3725835,19 12.000001,19 C 18.627418,19 24.000001,20.119288 24.000001,21.5 z"
         id="path10689"
         style="opacity:0.2;fill:url(#radialGradient2411);fill-opacity:1;fill-rule:nonzero;stroke:none;stroke-width:0.80000001;stroke-linecap:butt;stroke-linejoin:miter;marker:none;marker-start:none;marker-mid:none;marker-end:none;stroke-miterlimit:4;stroke-dashoffset:0;stroke-opacity:1;visibility:visible;display:inline;overflow:visible" />
      <path
         d="M 10.1875,1.5 C 9.799134,1.5 9.5,1.7991339 9.5,2.1875 L 9.5,3.875 C 8.988333,4.0322247 8.496816,4.2537684 8.03125,4.5 L 6.84375,3.3125 C 6.569134,3.0378838 6.118366,3.0378838 5.84375,3.3125 L 3.3125,5.84375 C 3.037884,6.1183662 3.037884,6.5691336 3.3125,6.84375 L 4.5,8.03125 C 4.253769,8.4968155 4.032225,8.9883329 3.875,9.5 L 2.1875,9.5 C 1.799134,9.5 1.5,9.7991344 1.5,10.1875 L 1.5,13.8125 C 1.5,14.200866 1.799134,14.5 2.1875,14.5 L 3.875,14.5 C 4.032225,15.011667 4.253769,15.503185 4.5,15.96875 L 3.3125,17.15625 C 3.037884,17.430866 3.037884,17.881634 3.3125,18.15625 L 5.84375,20.6875 C 6.118366,20.962116 6.569134,20.962116 6.84375,20.6875 L 8.03125,19.5 C 8.496816,19.746232 8.988333,19.967775 9.5,20.125 L 9.5,21.8125 C 9.5,22.200866 9.799135,22.5 10.1875,22.5 L 13.8125,22.5 C 14.200866,22.5 14.5,22.200866 14.5,21.8125 L 14.5,20.125 C 15.011667,19.967775 15.503185,19.746232 15.96875,19.5 L 17.15625,20.6875 C 17.430866,20.962116 17.881634,20.962116 18.15625,20.6875 L 20.6875,18.15625 C 20.962116,17.881634 20.962116,17.430866 20.6875,17.15625 L 19.5,15.96875 C 19.746232,15.503185 19.967775,15.011667 20.125,14.5 L 21.8125,14.5 C 22.200866,14.5 22.5,14.200866 22.5,13.8125 L 22.5,10.1875 C 22.5,9.7991341 22.200866,9.5 21.8125,9.5 L 20.125,9.5 C 19.967775,8.9883329 19.746232,8.4968155 19.5,8.03125 L 20.6875,6.84375 C 20.962116,6.5691338 20.962116,6.1183663 20.6875,5.84375 L 18.15625,3.3125 C 17.881634,3.0378838 17.430866,3.0378838 17.15625,3.3125 L 15.96875,4.5 C 15.503185,4.2537684 15.011667,4.0322247 14.5,3.875 L 14.5,2.1875 C 14.5,1.7991341 14.200866,1.5 13.8125,1.5 L 10.1875,1.5 z M 12,9 C 13.656,9 15,10.344 15,12 C 15,13.656 13.656,15 12,15 C 10.344,15 9,13.656 9,12 C 9,10.344 10.344,9 12,9 z"
         id="rect2426"
         style="opacity:1;fill:url(#linearGradient3218);fill-opacity:1;fill-rule:nonzero;stroke:url(#linearGradient3228);stroke-width:1;stroke-linecap:butt;stroke-linejoin:round;marker:none;marker-start:none;marker-mid:none;marker-end:none;stroke-miterlimit:4;stroke-dasharray:none;stroke-dashoffset:0;stroke-opacity:1;visibility:visible;display:block;overflow:visible;enable-background:accumulate" />
      <path
         d="M 12,6 C 8.6915443,5.9999998 6.0000001,8.6915446 6.0000001,12 C 6.0000001,15.308455 8.6915443,18 12,18 C 15.308455,17.999999 18,15.308455 18,12 C 18,8.6915446 15.308455,6 12,6 z M 12,8.7692308 C 13.783385,8.7692308 15.230769,10.216615 15.230769,12 C 15.230769,13.783385 13.783385,15.230769 12,15.230769 C 10.216615,15.230769 8.7692308,13.783385 8.7692308,12 C 8.7692308,10.216615 10.216615,8.7692308 12,8.7692308 z"
         id="path3315"
         style="opacity:0.05;fill:#000000;fill-opacity:1;stroke:none;stroke-width:0.99956679;stroke-miterlimit:4;stroke-dasharray:none" />
      <path
         d="M 11.999999,5.4999995 C 8.4158993,5.4999995 5.4999996,8.4158992 5.4999996,11.999999 C 5.4999996,15.5841 8.4158993,18.5 11.999999,18.5 C 15.584101,18.5 18.5,15.5841 18.5,11.999999 C 18.5,8.4158992 15.584101,5.4999995 11.999999,5.4999995 z"
         id="path28"
         style="fill:none;stroke:url(#linearGradient3241);stroke-width:1;stroke-miterlimit:4;stroke-dasharray:none" />
    </g>
  </g>
</svg>
